filter-multiple.svg

<svg fill="currentColor" viewBox="0 0 24 24"><path d="M3.46 5c-.21 0-.42.08-.59.21-.44.34-.52.97-.18 1.4v.01L8 13.42v5.99l2.29 2.3c.39.39 1.03.39 1.42 0s.39-1.03 0-1.42L10 18.59v-5.86L4.27 5.39A1.01 1.01 0 0 0 3.46 5M16 12v7.88c.04.3-.06.62-.29.83a.996.996 0 0 1-1.41 0l-2.01-2.01a.99.99 0 0 1-.29-.83V12h-.03L6.21 4.62a1 1 0 0 1 .17-1.4c.19-.14.4-.22.62-.22h14c.22 0 .43.08.62.22a1 1 0 0 1 .17 1.4L16.03 12z"/></svg>

<svg  viewBox="0 0 24 24" fill="currentColor"><path  d="M3.46 5C3.25 5 3.04 5.08 2.87 5.21C2.43 5.55 2.35 6.18 2.69 6.61L2.69 6.62L8 13.42V19.41L10.29 21.71C10.68 22.1 11.32 22.1 11.71 21.71C12.1 21.32 12.1 20.68 11.71 20.29L10 18.59V12.73L4.27 5.39C4.08 5.14 3.78 5 3.46 5M16 12V19.88C16.04 20.18 15.94 20.5 15.71 20.71C15.32 21.1 14.69 21.1 14.3 20.71L12.29 18.7C12.06 18.47 11.96 18.16 12 17.87V12H11.97L6.21 4.62C5.87 4.19 5.95 3.56 6.38 3.22C6.57 3.08 6.78 3 7 3H21C21.22 3 21.43 3.08 21.62 3.22C22.05 3.56 22.13 4.19 21.79 4.62L16.03 12H16Z"/></svg>
